LOAD a
LOAD b
LOAD a
CALL FORWARD
LOAD b
CALL LEFT
LOAD a
CALL FORWARD
LOAD b
CALL LEFT
LOAD a
CALL FORWARD
LOAD b
CALL LEFT
LOAD a
CALL FORWARD
LOAD b
CALL LEFT
DEF square
PUSH 1
PUSH 2
LT
PUSH 2
PUSH 1
GT
AND
CALL IF CONDITION
PUSH 3
STORE b
LOAD b
PUSH 2
POW
STORE a
PUSH 4
LOAD a
LOAD b
ADD
MUL
STORE c
LOAD c
PUSH "\n"
CALL WRITE
LOAD a
LOAD b
CALL square
CALL IF EXECUTION
PUSH "Condicao nao atendida"
CALL WRITE
CALL ELSE EXECUTION
