to square :a, :b 
  forward :a
  left :b
  forward :a
  left :b
  forward :a
  left :b
  forward :a
  left :b
end
if (1 < 2 and 2 > 1) 
  then 
    b = 3
    a = :b ^ 2
    c = 4 * (:a + :b)
    write :c "\n"
    square :a, :b
else
  write "Condicao nao atendida"
end